X: 72
T: the Nine Points of Roguery
R: reel
Z: 2012 John Chambers <jc@trillian.mit.edu>
B: "100 Essential Irish Session Tunes" 1995 Dave Mallinson, ed.
M: 4/4
L: 1/8
K: D
FE "A"|\
"D"D2FD GEFD | DEFG "A"ABAF | "D"D2FD GEFA | "Em"BE~E2 "A7"BEGE |\
"D"D2FD GEFD | DEFG "A"ABAF | "D"D2FA "G"GB"A"Ac | "D"d2dc d2 :|
|: AB "B"|\
"C"=c3A "G"B3G | "A7"A2AB AGFE | "D"D2FD GEFA | "Em"BE~E2 BEEB |\
"C"=c3A "G"B3G | "A7"Adcd "D"fdAF | "D"D2FA "G"GB"A"Ac | "D"d2dc d2 :|
|: fe "C"|\
"D"d2fd gefe | "D"defg "A"abaf | "D"d2fd gefa | "Em"bege "A7"bege |\
"D"d2fd gefe | "D"d2ad "A"bdad | "D"dfaf "A7"gece | "D"d2dc d2 :|
|: AB "B"|\
"C"=c3A "G"B3G | "A7"A2AB AGFE | "D"D2FD GEFA | "Em"BE~E2 BEEB |\
"C"=c3A "G"B3G | "A7"Adcd "D"fdAF | "D"D2FA "G"GB"A"Ac | "D"d2dc d2 :|

%%sep 2 1 500
%%sep 1 1 500

